X: 06046
T: MARIE'S REEL
C: Bob McQuillen 11 Aug 82
B: Bob's Note Book 6 #46
%R: reel
Z: 2021 John Chambers <jc:trillian.mit.edu>
M: C
L: 1/8
K: D
fe \
| d2dA FAdf | g2gd Bdgb | afab afdf | efec A2FA |\
| BGBd edBd | fdBd AFDF | ABdf gecd | e2d2 d2 :|
|: de \
| fage fded | BGBd gdBG | FDFA dfab | afdf e2ag |\
| fage fafd | BGBd gdBG | FDFA dfeg | f2d2 d2 :|
%%begintext align
%% This tune is for an old friend, Marie Rhines,
%% great fiddler from Falmouth, on Cape Cod.
%% Hope you and your students like this one, Marie!
%%endtext

%%sep 1 1 500

%%sep 1 1 500

